!!! OTL: Berkowitz124
!!! Chapter: 1
!!! Section: I
!!! Page: 29
!!! Mode: 
!!! Encoder: DJB
**kern
*staff1
*I"Piano
=1-
*clefF4
*k[f#c#g#d#]
*c#:
*M6/8
4C#/
16E\LL
16F#\JJ
4G#\
8C#/
=2
4A\
16B\LL
16A\JJ
4G#\
8C#/
=3
4F#\
16G#\LL
16F#\JJ
4E\
8C#/
=4
4.D#\
4.G#\
=5
4F#\
16E\LL
16F#\JJ
4G#\
16F#\LL
16G#\JJ
=6
8A\L
8G#\
8F#\J
8E\L
8C#\
8G#\J
=7
8.c#\L
16A\K
8F#\J
8G#\L
8E\
8C#\J
=8
!!linebreak:original
4D#\
16E\LL
16D#\JJ
4.C#/
==
*-
